icons-rebrand/svg/dx80-filled.svg

<svg xmlns="http://www.w3.org/2000/svg" width="32" height="32" viewBox="0 0 32 32" fill="none"><path d="M16.9998 4H14.9998C14.7345 4 14.4802 3.89464 14.2926 3.70711C14.1051 3.51957 13.9998 3.26521 13.9998 3C13.9998 2.73478 14.1051 2.48043 14.2926 2.29289C14.4802 2.10536 14.7345 2 14.9998 2H16.9998C17.265 2 17.5193 2.10536 17.7069 2.29289C17.8944 2.48043 17.9998 2.73478 17.9998 3C17.9998 3.26521 17.8944 3.51957 17.7069 3.70711C17.5193 3.89464 17.265 4 16.9998 4Z M6.99976 6H24.9998C26.3254 6.00157 27.5962 6.52886 28.5335 7.4662C29.4709 8.40354 29.9982 9.6744 29.9997 11V27.5C29.9991 28.1629 29.7355 28.7984 29.2668 29.2671C28.7981 29.7358 28.1626 29.9994 27.4997 30H26.6198C25.9627 30.0015 25.3318 29.7427 24.865 29.2803L22.5535 27H9.41871L7.15113 29.2676C6.68139 29.735 6.04621 29.9982 5.38355 30H4.49976C3.8369 29.9994 3.20138 29.7358 2.73267 29.2671C2.26396 28.7984 2.00037 28.1629 1.99976 27.5V11C2.00131 9.67439 2.5286 8.40353 3.46594 7.46619C4.40329 6.52884 5.67415 6.00156 6.99976 6ZM28 20.0002H3.99996V22.0002H28V20.0002Z"/></svg>

<svg width="32" height="32" fill="none" xmlns="http://www.w3.org/2000/svg"><path d="M16.9998 4h-2a1.0002 1.0002 0 0 1-1-1 1 1 0 0 1 1-1h2a1.0001 1.0001 0 0 1 .7071 1.7071A1.0001 1.0001 0 0 1 16.9998 4Z" fill="#0F0F0F"/><path fill-rule="evenodd" clip-rule="evenodd" d="M6.9998 6h18a5.0056 5.0056 0 0 1 4.9999 5v16.5a2.5022 2.5022 0 0 1-2.5 2.5h-.8799a2.4854 2.4854 0 0 1-1.7548-.7197L22.5535 27H9.4187l-2.2676 2.2676A2.5157 2.5157 0 0 1 5.3836 30h-.8838a2.5023 2.5023 0 0 1-2.5-2.5V11a5.0058 5.0058 0 0 1 5-5ZM28 20.0002H4v2h24v-2Z" fill="#0F0F0F"/></svg>
